file/logo-tv.svg

<svg clip-rule="evenodd" fill-rule="evenodd" stroke-linejoin="round" stroke-miterlimit="1.41421" viewBox="0 0 560 400" xmlns="http://www.w3.org/2000/svg"><g fill-rule="nonzero" transform="matrix(.996316 0 0 .996316 80.7319 50.6203)"><path d="m314 125.6c4.9-1.3 10 1.1 13.9 3.8 3.8 5.4 5.4 13.2 1.3 18.9-6.2 7.5-20.5 5.4-23.8-3.9-2.4-7.2 1.7-15.8 8.6-18.8" fill="#80e5ff"/><path d="m281.6 147.9c-1.6 1-3.4 1.7-5.3 2-4.8-.7-6.3-6.2-7.2-10.2-.9-6.6-2.3-14 .6-20.4 3.5-3.8 8.6-5.8 13-8.3 2.3-1.4 5.2.1 6.3 2.4 6.3 11.3 2.4 26.5-7.4 34.5zm-58.3 44.2c-2.7 19.8-5.8 39.7-11.4 58.9-2.1 6.7-4.2 13.5-8.5 19.2-1.5 2-4.2 4-6.7 2.6-4.1-3-5.7-8-7.2-12.6-2.9-10.7-4.1-21.9-4.4-33-.2-11.2 4.4-21.7 10-31.2 10.1-17.1 22-33.1 33-49.7-1.2 15.4-2.8 30.6-4.8 45.8zm-5.3-60.6c-2.9 3.9-6.5 8.3-11.6 8.8-3.3-1.4-3-5.7-1.9-8.4 2.8-7.1 6.4-14.1 12.2-19.1 3.2-2.9 7.1-4.8 11-6.6-.1 9.2-4.5 17.8-9.7 25.3zm-41.5 5.7c-1.7 5.2-4.3 10.5-8.9 13.7-2.8 1.9-7.5 2-8.7-1.8-2.8-8-1.6-16.7-1.2-25 7.2-2.4 14.5-4.5 21.7-6.5.6 6.6-1.1 13.2-2.9 19.6zm-6.7-37.5c1.9-1.3 4.9-.9 6.1 1 1 1.6 1.4 3.4 2.1 5.2-6.6 2.6-13.6 4.4-20.5 6 3.4-4.7 7.3-9.2 12.3-12.2zm133.1 10.8c-1.5-6.2-5.1-12.7-11.6-14.7-6.3-2.2-12.8 1-17.7 4.8-6.1 5-12.1 10.3-17.4 16.2-2.7 3-6.1 5.3-9.2 7.9.4-6.1.7-12.1 1.9-18.1.5-2.2.2-4.5-.7-6.6-3.5-.4-8.4.8-10.5-2.9-2.2-3-4.9-7.9-9.4-6.4-13.3 5.1-26.8 9.7-40.4 13.6-2.1-6-5.7-12-11.8-14.6-7.2-3.3-16.2-1.7-22.1 3.4-7.7 6.6-11.4 16.6-18.9 23.4-1.5 1.7-3.7 3.3-3.4 5.8 1.9 3.2 4.7 5.8 7.1 8.7-13.1 11.2-26.9 21.6-41.1 31.4-.1-6.5.7-12.9 1.6-19.3 3.6-23.8 8.3-47.4 13.3-71 3-14.4 6.5-28.7 11.2-42.7 1.5-4.1 1.3-9.6-2.8-12.1-5.9-3.1-12.9-3.3-19.3-2.4-1.9.4-4.2.4-5.5 2-1.4 35.2-5.1 70.4-11.3 105.1-2.6 13.6-5.1 27.3-10.2 40.2-1.3 3.8-4.4 6.5-6.3 9.9 2.2 5 6 9.1 11 11.5 4.4 2.3 10.8 4.3 14.8.1 15.3-13.8 30.5-27.7 46.5-40.7 1.7 5.8 3.2 12.5 8.5 16.2 3.9 3 9.1 3.1 13.8 2.3 8.3-1.9 15.1-8.2 19.2-15.6 4.7-9.6 5.2-20.5 6.5-30.9 4.4-2.2 9-4.1 13.5-6.3-7 9.6-12.8 21.1-12 33.2 0 3.9 3.8 6.6 7.3 7.1 6.3.9 12.3-2.3 17.2-6 7.2-5.4 11.1-13.7 16-21-.4 4.8-1.3 9.5-2 14.3-14.7 16.2-29 32.8-41.9 50.5-7.8 11.2-15.6 22.8-19.7 36-2.1 6.4-1.9 13.4-.5 19.9 1.7 8.1 4.3 16.1 7.6 23.7 2.2 4.7 4.5 9.7 8.3 13.4 3.1 3.1 7.5 4.1 11.5 5.6 8.8.5 16.6-5.1 21.7-11.9 6.3-8.5 11.6-18.1 14.3-28.4 2.5-8.5 4-17.3 5.5-26 4.8-28.7 7.3-57.8 11-86.7 1.2-.8 2.4-1.6 3.7-2.3.6 8.6 3.1 17.4 8.4 24.4 4.6 5.6 12.7 5.5 19.2 4.1 9-2.2 15.4-9.6 19.8-17.2 5.3-9.2 7.3-20.4 5.3-30.9" fill="#100f0d"/></g></svg>

<?xml version="1.0" encoding="UTF-8" standalone="no"?>
<!DOCTYPE svg PUBLIC "-//W3C//DTD SVG 1.1//EN" "http://www.w3.org/Graphics/SVG/1.1/DTD/svg11.dtd">
<svg width="100%" height="100%" viewBox="0 0 560 400" version="1.1" xmlns="http://www.w3.org/2000/svg" xmlns:xlink="http://www.w3.org/1999/xlink" xml:space="preserve" xmlns:serif="http://www.serif.com/" style="fill-rule:evenodd;clip-rule:evenodd;stroke-linejoin:round;stroke-miterlimit:1.41421;">
    <g transform="matrix(0.996316,0,0,0.996316,80.7319,50.6203)">
        <path id="dot" d="M314,125.6C318.9,124.3 324,126.7 327.9,129.4C331.7,134.8 333.3,142.6 329.2,148.3C323,155.8 308.7,153.7 305.4,144.4C303,137.2 307.1,128.6 314,125.6" style="fill:rgb(128,229,255);fill-rule:nonzero;"/>
        <path id="text" d="M281.6,147.9C280,148.9 278.2,149.6 276.3,149.9C271.5,149.2 270,143.7 269.1,139.7C268.2,133.1 266.8,125.7 269.7,119.3C273.2,115.5 278.3,113.5 282.7,111C285,109.6 287.9,111.1 289,113.4C295.3,124.7 291.4,139.9 281.6,147.9ZM223.3,192.1C220.6,211.9 217.5,231.8 211.9,251C209.8,257.7 207.7,264.5 203.4,270.2C201.9,272.2 199.2,274.2 196.7,272.8C192.6,269.8 191,264.8 189.5,260.2C186.6,249.5 185.4,238.3 185.1,227.2C184.9,216 189.5,205.5 195.1,196C205.2,178.9 217.1,162.9 228.1,146.3C226.9,161.7 225.3,176.9 223.3,192.1ZM218,131.5C215.1,135.4 211.5,139.8 206.4,140.3C203.1,138.9 203.4,134.6 204.5,131.9C207.3,124.8 210.9,117.8 216.7,112.8C219.9,109.9 223.8,108 227.7,106.2C227.6,115.4 223.2,124 218,131.5ZM176.5,137.2C174.8,142.4 172.2,147.7 167.6,150.9C164.8,152.8 160.1,152.9 158.9,149.1C156.1,141.1 157.3,132.4 157.7,124.1C164.9,121.7 172.2,119.6 179.4,117.6C180,124.2 178.3,130.8 176.5,137.2ZM169.8,99.7C171.7,98.4 174.7,98.8 175.9,100.7C176.9,102.3 177.3,104.1 178,105.9C171.4,108.5 164.4,110.3 157.5,111.9C160.9,107.2 164.8,102.7 169.8,99.7ZM302.9,110.5C301.4,104.3 297.8,97.8 291.3,95.8C285,93.6 278.5,96.8 273.6,100.6C267.5,105.6 261.5,110.9 256.2,116.8C253.5,119.8 250.1,122.1 247,124.7C247.4,118.6 247.7,112.6 248.9,106.6C249.4,104.4 249.1,102.1 248.2,100C244.7,99.6 239.8,100.8 237.7,97.1C235.5,94.1 232.8,89.2 228.3,90.7C215,95.8 201.5,100.4 187.9,104.3C185.8,98.3 182.2,92.3 176.1,89.7C168.9,86.4 159.9,88 154,93.1C146.3,99.7 142.6,109.7 135.1,116.5C133.6,118.2 131.4,119.8 131.7,122.3C133.6,125.5 136.4,128.1 138.8,131C125.7,142.2 111.9,152.6 97.7,162.4C97.6,155.9 98.4,149.5 99.3,143.1C102.9,119.3 107.6,95.7 112.6,72.1C115.6,57.7 119.1,43.4 123.8,29.4C125.3,25.3 125.1,19.8 121,17.3C115.1,14.2 108.1,14 101.7,14.9C99.8,15.3 97.5,15.3 96.2,16.9C94.8,52.1 91.1,87.3 84.9,122C82.3,135.6 79.8,149.3 74.7,162.2C73.4,166 70.3,168.7 68.4,172.1C70.6,177.1 74.4,181.2 79.4,183.6C83.8,185.9 90.2,187.9 94.2,183.7C109.5,169.9 124.7,156 140.7,143C142.4,148.8 143.9,155.5 149.2,159.2C153.1,162.2 158.3,162.3 163,161.5C171.3,159.6 178.1,153.3 182.2,145.9C186.9,136.3 187.4,125.4 188.7,115C193.1,112.8 197.7,110.9 202.2,108.7C195.2,118.3 189.4,129.8 190.2,141.9C190.2,145.8 194,148.5 197.5,149C203.8,149.9 209.8,146.7 214.7,143C221.9,137.6 225.8,129.3 230.7,122C230.3,126.8 229.4,131.5 228.7,136.3C214,152.5 199.7,169.1 186.8,186.8C179,198 171.2,209.6 167.1,222.8C165,229.2 165.2,236.2 166.6,242.7C168.3,250.8 170.9,258.8 174.2,266.4C176.4,271.1 178.7,276.1 182.5,279.8C185.6,282.9 190,283.9 194,285.4C202.8,285.9 210.6,280.3 215.7,273.5C222,265 227.3,255.4 230,245.1C232.5,236.6 234,227.8 235.5,219.1C240.3,190.4 242.8,161.3 246.5,132.4C247.7,131.6 248.9,130.8 250.2,130.1C250.8,138.7 253.3,147.5 258.6,154.5C263.2,160.1 271.3,160 277.8,158.6C286.8,156.4 293.2,149 297.6,141.4C302.9,132.2 304.9,121 302.9,110.5" style="fill:rgb(16,15,13);fill-rule:nonzero;"/>
    </g>
</svg>
